X: 15334
T: Gladstone's Bill
R: reel
M: 4/4
K: Amixolydian
~e3f edcd|~e3c d2cd|~e3f edB/c/d|efge dGBd:|
ea~a2 eg~g2|eaae g2ed|eg~g2 efge|dBGB dGB/c/d|
ea~a2 eg~g2|eaae ~g3a|aggf gfed|B/c/def gbag|
|:eA~A2 GABd|eA~A2 G2FD|EA~A2 GABe|dBGB dGB/c/d:|

